svg/icon/xmy.svg

<svg xmlns="http://www.w3.org/2000/svg" xmlns:xlink="http://www.w3.org/1999/xlink" width="32" height="32" viewBox="0 0 32 32">
  <defs>
    <linearGradient id="xmy-c" x1="50%" x2="50%" y1="0%" y2="100%">
      <stop offset="0%" stop-color="#FFF" stop-opacity=".5"/>
      <stop offset="100%" stop-opacity=".5"/>
    </linearGradient>
    <circle id="xmy-b" cx="16" cy="15" r="15"/>
    <filter id="xmy-a" width="111.7%" height="111.7%" x="-5.8%" y="-4.2%" filterUnits="objectBoundingBox">
      <feOffset dy=".5" in="SourceAlpha" result="shadowOffsetOuter1"/>
      <feGaussianBlur in="shadowOffsetOuter1" result="shadowBlurOuter1" stdDeviation=".5"/>
      <feComposite in="shadowBlurOuter1" in2="SourceAlpha" operator="out" result="shadowBlurOuter1"/>
      <feColorMatrix in="shadowBlurOuter1" values="0 0 0 0 0   0 0 0 0 0   0 0 0 0 0  0 0 0 0.199473505 0"/>
    </filter>
    <path id="xmy-e" d="M21.0491803,20 C20.4480874,20 19.7868852,19.6969697 19.7868852,18.7878788 C19.7868852,18.3404417 20.1362683,16.9631953 20.8350344,14.6561396 C20.9777984,14.2995213 21.0491803,13.979798 21.0491803,13.6969697 C21.0491803,13.1515152 20.6284153,12.6060606 19.8469945,12.6060606 C19.3931811,12.6060606 18.4043716,12.7878788 18.1038251,13.7575758 C17.9034608,14.4040404 17.442623,16.1212121 16.7213115,18.9090909 C16.4408015,19.6363636 15.9398907,20 15.2185792,20 C14.136612,20 13.9562842,19.2121212 13.9562842,18.7272727 C13.9562842,18.5346707 14.2444002,17.374276 14.8206324,15.2460886 C15.0458574,14.536575 15.1584699,14.020202 15.1584699,13.6969697 C15.1584699,13.2121212 14.7978142,12.6060606 13.9562842,12.6060606 C13.1147541,12.6060606 12.3333333,13.2121212 11.9726776,14.5454545 C11.7322404,15.4343434 11.3916211,16.7676768 10.9508197,18.5454545 C10.7103825,19.5151515 10.1693989,20 9.32786885,20 C8.56648452,20 8.16575592,19.5757576 8.12568306,18.7272727 L9.50819672,12.969697 L6.44262295,12.969697 C5.63242837,12.969697 5,12.3320419 5,11.5454545 C5,10.7588672 5.63242837,10.1212121 6.41256831,10.1212121 C6.41926367,10.1212121 8.13237842,10.1212121 11.5519126,10.1212121 C12.273224,10.1212121 12.7140255,10.4646465 12.8743169,11.1515152 C13.5956284,10.2424242 14.557377,10 15.3989071,10 C16.2404372,10 17.3224044,10.4848485 17.8032787,11.5757576 C18.4644809,10.8484848 19.6065574,10 21.2295082,10 C22.7322404,10 23.9945355,11.030303 23.9945355,12.8484848 C23.9945355,13.5353535 23.6539162,14.969697 22.9726776,17.1515152 L25.6099133,17.1341674 C26.3810276,17.1341463 27,17.7756895 27,18.5670732 C27,19.3584568 26.3810276,20 25.6174863,20 L21.0491803,20 Z"/>
    <filter id="xmy-d" width="115.9%" height="135%" x="-8%" y="-12.5%" filterUnits="objectBoundingBox">
      <feOffset dy=".5" in="SourceAlpha" result="shadowOffsetOuter1"/>
      <feGaussianBlur in="shadowOffsetOuter1" result="shadowBlurOuter1" stdDeviation=".5"/>
      <feColorMatrix in="shadowBlurOuter1" values="0 0 0 0 0   0 0 0 0 0   0 0 0 0 0  0 0 0 0.204257246 0"/>
    </filter>
  </defs>
  <g fill="none" fill-rule="evenodd">
    <g fill-rule="nonzero">
      <use fill="#000" filter="url(#xmy-a)" xlink:href="#xmy-b"/>
      <use fill="#EC1076" fill-rule="evenodd" xlink:href="#xmy-b"/>
      <use fill="url(#xmy-c)" fill-rule="evenodd" style="mix-blend-mode:soft-light" xlink:href="#xmy-b"/>
      <circle cx="16" cy="15" r="14.5" stroke="#000" stroke-opacity=".097"/>
    </g>
    <use fill="#000" filter="url(#xmy-d)" xlink:href="#xmy-e"/>
    <use fill="#FFF" xlink:href="#xmy-e"/>
  </g>
</svg>

<svg height="32" width="32" xmlns="http://www.w3.org/2000/svg" xmlns:xlink="http://www.w3.org/1999/xlink"><defs><linearGradient id="c" x1="50%" x2="50%" y1="0%" y2="100%"><stop offset="0" stop-color="#fff" stop-opacity=".5"/><stop offset="1" stop-opacity=".5"/></linearGradient><circle id="b" cx="16" cy="15" r="15"/><filter id="a" height="111.7%" width="111.7%" x="-5.8%" y="-4.2%"><feOffset dy=".5" in="SourceAlpha" result="shadowOffsetOuter1"/><feGaussianBlur in="shadowOffsetOuter1" result="shadowBlurOuter1" stdDeviation=".5"/><feComposite in="shadowBlurOuter1" in2="SourceAlpha" operator="out" result="shadowBlurOuter1"/><feColorMatrix in="shadowBlurOuter1" values="0 0 0 0 0 0 0 0 0 0 0 0 0 0 0 0 0 0 0.199473505 0"/></filter><path id="e" d="M21.05 20c-.602 0-1.263-.303-1.263-1.212 0-.448.35-1.825 1.048-4.132.143-.356.214-.676.214-.959 0-.545-.42-1.09-1.202-1.09-.454 0-1.443.18-1.743 1.15-.2.647-.661 2.364-1.383 5.152-.28.727-.781 1.091-1.502 1.091-1.082 0-1.263-.788-1.263-1.273 0-.192.288-1.353.865-3.48.225-.71.337-1.227.337-1.55 0-.485-.36-1.09-1.202-1.09-.841 0-1.623.605-1.983 1.938-.24.89-.581 2.223-1.022 4-.24.97-.782 1.455-1.623 1.455-.762 0-1.162-.424-1.202-1.273l1.382-5.757H6.443a1.425 1.425 0 1 1-.03-2.849h5.139c.721 0 1.162.344 1.322 1.03C13.596 10.243 14.557 10 15.4 10s1.923.485 2.404 1.576C18.464 10.848 19.607 10 21.23 10c1.502 0 2.765 1.03 2.765 2.848 0 .687-.341 2.122-1.022 4.304l2.637-.018c.771 0 1.39.642 1.39 1.433S26.381 20 25.617 20z"/><filter id="d" height="135%" width="115.9%" x="-8%" y="-12.5%"><feOffset dy=".5" in="SourceAlpha" result="shadowOffsetOuter1"/><feGaussianBlur in="shadowOffsetOuter1" result="shadowBlurOuter1" stdDeviation=".5"/><feColorMatrix in="shadowBlurOuter1" values="0 0 0 0 0 0 0 0 0 0 0 0 0 0 0 0 0 0 0.204257246 0"/></filter></defs><g fill="none" fill-rule="evenodd"><g fill-rule="nonzero"><use fill="#000" filter="url(#a)" xlink:href="#b"/><use fill="#ec1076" fill-rule="evenodd" xlink:href="#b"/><use fill="url(#c)" fill-rule="evenodd" xlink:href="#b"/><circle cx="16" cy="15" r="14.5" stroke="#000" stroke-opacity=".097"/></g><use fill="#000" filter="url(#d)" xlink:href="#e"/><use fill="#fff" xlink:href="#e"/></g></svg>
